48x48/apps/cudatext-512.svg

<svg xmlns="http://www.w3.org/2000/svg" width="48" height="48" version="1">
 <rect style="opacity:0.2" width="40" height="40" x="4" y="5" rx="10" ry="10"/>
 <rect style="fill:#7a7c77" width="40" height="40" x="4" y="4" rx="10" ry="10"/>
 <path style="fill:#f4f4f7;opacity:0.1" d="M 14 4 C 8.46 4 4 8.46 4 14 L 4 15 C 4 9.46 8.46 5 14 5 L 34 5 C 39.54 5 44 9.46 44 15 L 44 14 C 44 8.46 39.54 4 34 4 L 14 4 z"/>
 <path style="opacity:0.2" d="m 22,12 c -3.324,0 -6,2.676 -6,6 v 14 c 0,3.324 2.676,6 6,6 h 4 c 2.620656,0 4.831094,-1.667133 5.652344,-4 H 26 24 22 c -1.177189,0 -2,-0.822811 -2,-2 V 18 c 0,-1.177189 0.822811,-2 2,-2 h 2 2 5.652344 C 30.831094,13.667133 28.620656,12 26,12 Z m 2,7 v 8 c 0,1.208333 0.420515,2.215922 1.101562,2.875 0.681049,0.659078 1.535562,0.962432 2.34375,1.109375 0.808189,0.146943 1.596553,0.140732 2.246094,0.107422 C 30.340947,31.058487 30.916667,31 31,31 h 1 V 19 h -2 v 10.068359 c -0.144458,0.01217 -0.24461,0.01885 -0.410156,0.02734 -0.569209,0.02919 -1.218345,0.02298 -1.785156,-0.08008 C 27.237876,28.912574 26.779889,28.715922 26.492188,28.4375 26.204484,28.159078 26,27.791667 26,27 v -8 z"/>
 <path style="fill:#ff9800" d="M 22 11 C 18.676 11 16 13.676 16 17 L 16 31 C 16 34.324 18.676 37 22 37 L 26 37 C 28.620656 37 30.831094 35.332867 31.652344 33 L 26 33 L 24 33 L 22 33 C 20.822811 33 20 32.177189 20 31 L 20 17 C 20 15.822811 20.822811 15 22 15 L 24 15 L 26 15 L 31.652344 15 C 30.831094 12.667133 28.620656 11 26 11 L 22 11 z"/>
 <path style="fill:none;stroke:#ff9800;stroke-width:2" d="m 25,18 v 8 c 0,4 5,3 6,3 V 18"/>
 <path style="opacity:0.2;fill:#f4f4f7" d="M 22 11 C 18.676 11 16 13.676 16 17 L 16 18 C 16 14.676 18.676 12 22 12 L 26 12 C 28.225456 12 30.145388 13.208781 31.179688 15 L 31.652344 15 C 30.831094 12.667133 28.620656 11 26 11 L 22 11 z M 24 18 L 24 19 L 26 19 L 26 18 L 24 18 z M 30 18 L 30 19 L 32 19 L 32 18 L 30 18 z M 26 26 L 26 27 C 26 27.791667 26.204484 28.159078 26.492188 28.4375 C 26.779889 28.715922 27.237876 28.91258 27.804688 29.015625 C 28.371499 29.118685 29.020635 29.124893 29.589844 29.095703 C 29.75539 29.087213 29.855542 29.080529 30 29.068359 L 30 28.068359 C 29.855542 28.080529 29.75539 28.087213 29.589844 28.095703 C 29.020635 28.124893 28.371499 28.118685 27.804688 28.015625 C 27.237876 27.912574 26.779889 27.715922 26.492188 27.4375 C 26.204484 27.159078 26 26.791667 26 26 z M 20 31 L 20 32 C 20 33.177189 20.822811 34 22 34 L 24 34 L 26 34 L 31.179688 34 C 31.36336 33.681913 31.528498 33.351801 31.652344 33 L 26 33 L 24 33 L 22 33 C 20.822811 33 20 32.177189 20 31 z"/>
</svg>

<svg xmlns="http://www.w3.org/2000/svg" width="48" height="48" version="1"><rect style="opacity:.2" width="40" height="40" x="4" y="5" rx="10" ry="10"/><rect style="fill:#7a7c77" width="40" height="40" x="4" y="4" rx="10" ry="10"/><path style="fill:#f4f4f7;opacity:.1" d="M14 4C8.46 4 4 8.46 4 14v1C4 9.46 8.46 5 14 5h20c5.54 0 10 4.46 10 10v-1c0-5.54-4.46-10-10-10H14z"/><path style="opacity:.2" d="M22 12c-3.324 0-6 2.676-6 6v14c0 3.324 2.676 6 6 6h4a5.98 5.98 0 0 0 5.652-4H22c-1.177 0-2-.823-2-2V18c0-1.177.823-2 2-2H31.652A5.98 5.98 0 0 0 26 12zm2 7v8c0 1.208.42 2.216 1.102 2.875.68.66 1.535.962 2.343 1.11.809.146 1.597.14 2.246.107.65-.034 1.226-.092 1.309-.092h1V19h-2v10.068c-.144.013-.245.02-.41.028-.57.029-1.219.023-1.785-.08-.567-.103-1.025-.3-1.313-.578C26.204 28.159 26 27.791 26 27v-8z"/><path style="fill:#ff9800" d="M22 11c-3.324 0-6 2.676-6 6v14c0 3.324 2.676 6 6 6h4a5.98 5.98 0 0 0 5.652-4H22c-1.177 0-2-.823-2-2V17c0-1.177.823-2 2-2H31.652A5.98 5.98 0 0 0 26 11h-4z"/><path style="fill:none;stroke:#ff9800;stroke-width:2" d="M25 18v8c0 4 5 3 6 3V18"/><path style="opacity:.2;fill:#f4f4f7" d="M22 11c-3.324 0-6 2.676-6 6v1c0-3.324 2.676-6 6-6h4a5.964 5.964 0 0 1 5.18 3h.472A5.98 5.98 0 0 0 26 11h-4zm2 7v1h2v-1h-2zm6 0v1h2v-1h-2zm-4 8v1c0 .792.204 1.16.492 1.438.288.278.746.475 1.313.578.566.103 1.216.109 1.785.08.165-.009.266-.015.41-.028v-1c-.144.013-.245.02-.41.028-.57.029-1.219.023-1.785-.08-.567-.103-1.025-.3-1.313-.578C26.204 27.159 26 26.791 26 26zm-6 5v1c0 1.177.823 2 2 2h9.18c.183-.318.348-.648.472-1H22c-1.177 0-2-.823-2-2z"/></svg>
